!!!!SEGMENT: pl-kk--kk-i-389--003-006_anonim--missa-no-3-benedictus.krn
!!!cenid: 17xx:2473
!!!COM: Anonim
!!!COM-rismID: pe30004985
!!!CDT:
!!!CNT:
!!!OPR: [Missa] No. 3.
!!!OTL: Benedictus
!!!OMV: 006
!!!PDT:
!!!AGN: Sacred; Mass
!!!YEC: Copyright 2022 Narodowy Instytut Fryderyka Chopina (https://polishscores.org)
!!!YEM: License CC-BY-4.0 (https://creativecommons.org/licenses/by/4.0)
!!!SMS-siglum: PL-Kk
!!!SMS-shelfmark: Kk.I.389
!!!SMS-variant:
!!!SMS-altvar:
!!!SMS-shelfwork: 003-006 M
!!!NIFC-rismSourceID: 1001146182
!!!NIFC-rismChildID: 1001146400
!!!NIFC-islandoraID: pl-kk:6976
!!!URL-pdf-islandora: https://repozytorium.nifc.pl/islandora/object/pl-kk%3A6976/datastream/PDF/view
!!!URL-scan: https://polish.musicsources.pl/pl/lokalizacje/galeria/rekopisy/5999/1 @EN{Scan on Polish Music Sources Website} @PL{Skany w portalu Dziedzictwo Muzyki Polskiej w otwartym dostępie}
!!!IIIF:
!!!ONB-nifc: UWAGA: S – skan 6-7, A – 25-26 , T – 44-45 , B – 63-64 . Części Mszy: Rorate, Kyrie, Gloria, Graduale, Sanctus, Benedictus, Agnus, Dona
!!!AIN: 1 alto 1 bass 1 soprn 1 tenor
!!!key: B-
**kern	**text	**kern	**text	**kern	**text	**kern	**text
*part4	*part4	*part3	*part3	*part2	*part2	*part1	*part1
*staff4	*staff4	*staff3	*staff3	*staff2	*staff2	*staff1	*staff1
*I"Basso.	*	*I"Tenore.	*	*I"Alto.	*	*I"Soprano.	*
*I'[B]	*	*I'[T]	*	*I'[A]	*	*I'[S]	*
*ICvox	*	*ICvox	*	*ICvox	*	*ICvox	*
*Ibass	*	*Itenor	*	*Ialto	*	*Isoprn	*
*clefF4	*	*clefC4	*	*clefC3	*	*clefC1	*
*k[b-e-]	*	*k[b-e-]	*	*k[b-e-]	*	*k[b-e-]	*
*B-:	*	*B-:	*	*B-:	*	*B-:	*
*M2/2	*	*M2/2	*	*M2/2	*	*M2/2	*
*met(C.|)	*	*met(C.|)	*	*met(C.|)	*	*met(C.|)	*
=1	=1	=1	=1	=1	=1	=1	=1
!!LO:TX:t=P:problem:all\right	!	!	!	!	!	!	!	!	!	!	!	!	!	!
!	!	!	!	!	!	!LO:TX:b:t=Benedictus Tacet. Osanna Da Capo.	!
4BB-/	Be-	4d\	Be-	4f\	Be-	1ryy	.
4D\	.	8B-\L	.	8d\L	-ne-	.	.
.	.	8c\J	.	8f\J	.	.	.
4E-\	.	8d\L	.	8f\L	-dic-	.	.
.	.	8c\J	.	8e-\J	.	.	.
4F\	-ne-	8e-\L	-ne-	8c/L	-tus	.	.
.	.	8c\J	.	8A/J	qui	.	.
=2	=2	=2	=2	=2	=2	=2	=2
8BB-\L	-dic-	4.d\	-dic-	4.B-/	ve-	1ryy	.
8C\	.	.	.	.	.	.	.
8D\	.	.	.	.	.	.	.
8E-\J	.	16c\LL	.	16c/LL	.	.	.
.	.	16B-\JJ	.	16d/JJ	.	.	.
4F\	-tus	4A\	-tus	4c\	-nit,	.	.
4A\	qui	4c\	qui	4e-\	in	.	.
=3	=3	=3	=3	=3	=3	=3	=3
4B-\	ve-	8B-\L	ve-	8d\L	no-	1ryy	.
.	.	8d\	.	8f\	.	.	.
4E-\	.	8e-\	.	8g\	-mi-	.	.
.	.	8c\J	.	8e-\J	-ne	.	.
*2\right	*	*	*	*	*	*	*
2F\	.	4B-\	.	4d\	Do-	.	.
.	.	4A\	.	4c\	-mi-	.	.
=4	=4	=4	=4	=4	=4	=4	=4
.	.	8qA/	.	.	.	.	.
*	*	*2\right	*	*2\right	*	*	*
2BB-/	-nit	2B-\	-nit	2d\	-ni,	1ryy	.
4r	.	4r	.	4r	.	.	.
4BB-/	in	8d\L	qui	8f\L	qui	.	.
.	.	8B-\J	.	8d\J	.	.	.
!	!	!LO:PB:g=original	!	!LO:PB:g=original	!	!	!
=5	=5	=5	=5	=5	=5	=5	=5
8BB-/L	no-	2B-\	ve-	2d\	ve-	1ryy	.
8C/	.	.	.	.	.	.	.
8D/	.	.	.	.	.	.	.
8E-/J	-mi-	.	.	.	.	.	.
4F\	-ne,	4A\	-nit	4c\	-nit	.	.
4F\	in	8e-\L	qui	8g\L	qui	.	.
.	.	8c\J	.	8e-\J	.	.	.
!LO:LB:g=original	!	!	!	!	!	!	!
=6	=6	=6	=6	=6	=6	=6	=6
8A\L	no-	2c\	ve-	2e-\	ve-	1ryy	.
8F\	.	.	.	.	.	.	.
8G\	-mi-	.	.	.	.	.	.
8A\J	.	.	.	.	.	.	.
4B-\	-ne,	4B-\	-nit	4d\	-nit	.	.
4B-\	in	4B-\	in	4d\	in	.	.
=7	=7	=7	=7	=7	=7	=7	=7
8B-\L	no-	8B-\L	no-	8d\L	no-	1ryy	.
8A\J	.	8c\J	.	8e-\J	.	.	.
8A\	-mi-	8c\L	-mi-	8e-\	-mi-	.	.
8B-\	-ne	8d\J	-ne	8f\	-ne	.	.
4E-\	Do-	8d\L	Do-	8f\L	Do-	.	.
.	.	8c\J	.	8e-\J	.	.	.
4En\	-mi-	8c\L	-mi-	8e-\	.	.	.
.	.	8B-\J	.	8d\	-mi-	.	.
=8	=8	=8	=8	=8	=8	=8	=8
.	.	8qB-/	.	8qd/	.	.	.
2F\	-ni,	2A\	-ni.	2c\	-ni,	1ryy	.
4r	.	4r	.	4r	.	.	.
4F\	qui	8A\L	qui	8c\L	qui	.	.
.	.	8B-\J	.	8d\J	.	.	.
=9	=9	=9	=9	=9	=9	=9	=9
2F\	ve-	4c\	ve-	4e-\	ve-	1ryy	.
.	.	4B-\	.	4d\	.	.	.
!	!	!	!	!LO:LB:g=original	!	!	!
4A\	-nit	8c\L	.	8e-\L	.	.	.
.	.	8e-\J	.	8g\	.	.	.
4F\	qui	8d\L	.	8f\	.	.	.
.	.	8c\J	.	8e-\J	.	.	.
!	!	!LO:LB:g=original	!	!	!	!	!
=10	=10	=10	=10	=10	=10	=10	=10
4B-\	ve-	4.B-\	.	4.d\	.	1ryy	.
4F\	.	.	.	.	.	.	.
.	.	8c\	.	8e-\	.	.	.
4BB-/	-nit	4d\	-nit,	4f\	-nit	.	.
4G\	qui	8Bn\L	qui	8d\L	qui	.	.
.	.	8c\J	.	8en\J	.	.	.
=11	=11	=11	=11	=11	=11	=11	=11
2G\	ve-	4d\	ve-	4f\	ve-	1ryy	.
.	.	4c\	.	4en\	.	.	.
4Bn\	-nit	8d\L	.	8f\L	.	.	.
.	.	8f\J	.	8a\	.	.	.
4G\	qui	8e-\	-nit	8g\	-nit	.	.
.	.	8d\	in	8f\J	.	.	.
!LO:LB:g=original	!	!	!	!	!	!	!
=12	=12	=12	=12	=12	=12	=12	=12
4c\	ve-	4.c\	no-	4.e-\	ve-	1ryy	.
4G\	.	.	.	.	.	.	.
.	.	8d\	-mi-	8f\	.	.	.
4C/	-nit	4en\	-ne	4g\	-nit	.	.
4C/	in	4e\	in	4g\	in	.	.
=13	=13	=13	=13	=13	=13	=13	=13
4F\	no-	4c\	no-	4a\	no-	1ryy	.
8BB-/	-mi-	8d\L	-mi-	8b-\L	-mi-	.	.
8D/	-ne	8B-\J	-ne	8g\J	-ne	.	.
4.C/	Do-	4A\	Do-	4f\	Do-	.	.
.	.	8B-\	.	8g\L	.	.	.
8C/	-mi-	8G\	-mi-	8e-\J	-mi-	.	.
!	!	!	!	!LO:LB:g=original	!	!	!
=14	=14	=14	=14	=14	=14	=14	=14
2F\	-ni	2A\	-ni.	2f\	-ni	1ryy	.
2r	.	2r	.	2r	.	.	.
!	!	!LO:LB:g=original	!	!	!	!	!
=15	=15	=15	=15	=15	=15	=15	=15
4BB-/	Be-	4d\	Be-	4f\	Be-	1ryy	.
4D\	.	8B-\L	.	8d\L	.	.	.
.	.	8d\J	.	8f\J	.	.	.
4E-\	.	8d\L	.	8f\L	.	.	.
.	.	8c\J	.	8e-\	.	.	.
4F\	-ne-	8A\L	-ne-	8c\	ne-	.	.
.	.	8c\J	.	8e-\J	.	.	.
=16	=16	=16	=16	=16	=16	=16	=16
4.D/	-dic-	4.B-\	-dic-	4.d\	-dic-	1ryy	.
8C/	.	8c\	.	8e-\	.	.	.
4BB-/	-tus	4d\	-tus	4f\	-tus	.	.
4BB-/	qui	8r	.	8r	.	.	.
.	.	8d\	qui	8f\	qui	.	.
=17	=17	=17	=17	=17	=17	=17	=17
2BB-/	ve-	8d\L	ve-	8f\L	ve-	1ryy	.
.	.	8c\	.	8e-\J	.	.	.
.	.	8c\	.	8e-\L	.	.	.
.	.	8B-\J	.	8d\J	.	.	.
4E-\	.	8B-\L	-nit	8d\L	.	.	.
.	.	8e-\	.	8c\J	.	.	.
4En\	.	8e-\	qui	8c/L	.	.	.
.	.	8d\J	.	8B-/J	.	.	.
=18	=18	=18	=18	=18	=18	=18	=18
2F\	-nit	2c\	ve-	2A/	-nit,	1ryy	.
4F\	in	4A\	-nit	4c/	in	.	.
4A\	.	4c\	in	4e-\	.	.	.
!LO:PB:g=original	!	!	!	!LO:LB:g=original	!	!	!
=19	=19	=19	=19	=19	=19	=19	=19
4B-\	no-	8B-\L	no-	8d\L	no-	1ryy	.
.	.	8d\J	.	8f\J	.	.	.
8E-\	-mi-	8e-\	-mi-	8g\	-mi-	.	.
8E-\	-ne	8c\	-ne	8e-\	-ne	.	.
!	!	!LO:LB:g=original	!	!	!	!	!
4F\	Do-	4B-\	Do-	4d\	Do-	.	.
4FF/	-mi-	4A\	-mi-	4c\	-mi-	.	.
=20	=20	=20	=20	=20	=20	=20	=20
2BB-/	-ni,	2B-\	-ni,	2d\	-ni,	1ryy	.
4FF/	in	4A\	in	4c\	in	.	.
4F\	.	8B-\L	.	8d\L	.	.	.
.	.	8c\J	.	8e-\J	.	.	.
=21	=21	=21	=21	=21	=21	=21	=21
!	!	!LO:TUP:a:problem:klamra łukowa	!	!LO:TUP:a:problem:klamra łukowa	!	!	!
4B-\	no-	12B-\L	no-	12d\L	no-	1ryy	.
.	.	12c\	.	12e-\	.	.	.
.	.	12d\J	.	12f\J	.	.	.
!	!	!LO:TUP:a:problem:klamra łukowa	!	!LO:TUP:a:problem:klamra łukowa	!	!	!
8E-\	-mi-	12e-\L	-mi-	12g\L	-mi-	.	.
.	.	12d\	-ne	12f\	.	.	.
8E-\	-ne	.	.	.	.	.	.
.	.	12c\J	.	12e-\J	-ne	.	.
4F\	Do-	4B-\	Do-	4d\	Do-	.	.
4FF/	-mi-	4A\	-mi-	4c\	-mi-	.	.
=22	=22	=22	=22	=22	=22	=22	=22
2BB-/	-ni.	2B-\	-ni.	2d\	-ni.	1ryy	.
!	!	!LO:TX:b:i:t=Osanna Da Capo.	!	!LO:TX:b:i:t=Osanna\nDa Capo.	!	!	!
2r	.	2r	.	2r	.	.	.
!LO:LB:g=original	!	!	!	!	!	!	!
=23||	=23||	=23||	=23||	=23||	=23||	=23||	=23||
*clefF4	*	*	*	*	*	*	*
*k[b-]	*	*yyk[b-]	*	*yyk[b-]	*	*yyk[b-]	*
*M2/2	*	*yyM2/2	*	*yyM2/2	*	*yyM2/2	*
*met(C.|)	*	*yymet(C.|)	*	*yymet(C.|)	*	*yymet(C.|)	*
!LO:TX:b:i:t=Osaña	!	!	!	!	!	!LO:TX:t=P:problem:soprano, alto i tenore, spisane z Sanctus.	!
4F\	O-	2c\yy	O-	2a\yy	O-	2a\yy	O-
4A\	.	.	.	.	.	.	.
4c\	-san-	2B-\yy	-san-	2g\yy	-san-	2b-\yy	-san-
4C/	.	.	.	.	.	.	.
=24	=24	=24	=24	=24	=24	=24	=24
2F\	-na	2A\yy	-na,	2f\yy	-na	2cc\yy	-na
2r	.	4ryy	.	4ryy	.	4ryy	.
.	.	4A\yy	O-	4f\yy	o-	4cc\yy	o-
=25	=25	=25	=25	=25	=25	=25	=25
!LO:TX:a:t=1.	!	!	!	!	!	!	!
1r	.	4G\yy	-san-	4e\yy	-san-	1ccyy	-san-
.	.	4A\yy	.	4f\yy	.	.	.
.	.	8qc/yy	.	8qa/yy	.	.	.
.	.	4B-\yy	.	4g\yy	.	.	.
.	.	8A\Lyy	.	8f\Lyy	.	.	.
.	.	8G\Jyy	.	8e\Jyy	.	.	.
=26	=26	=26	=26	=26	=26	=26	=26
2r	.	2A\yy	-na	2f\yy	-na,	2cc\yy	-na,
4r	.	4ryy	.	4ryy	.	2ryy	.
4F\	o-	4f\yy	O-	4a\yy	o-	.	.
=27	=27	=27	=27	=27	=27	=27	=27
!	!	!	!	!	!	!yyLO:TX:a:t=1.	!
1C	-san-	4e\yy	-san-	4g\yy	-san-	1ryy	.
.	.	4f\yy	.	4a\yy	.	.	.
.	.	8qa/yy	.	8qcc/yy	.	.	.
.	.	4g\yy	.	4b-\yy	.	.	.
.	.	8f\Lyy	.	8a\Lyy	.	.	.
.	.	8e\Jyy	.	8g\Jyy	.	.	.
=28	=28	=28	=28	=28	=28	=28	=28
2F\	-na	2f\yy	-na	2a\yy	-na	2ryy	.
4r	.	4ryy	.	4ryy	.	4ryy	.
4F\	o-	4f\yy	O-	4a\yy	o-	4cc\yy	O-
=29	=29	=29	=29	=29	=29	=29	=29
4.C/	-san-	4.e\yy	-san-	4.g\yy	-san-	4.cc\yy	-san-
8C/	-na	8f\yy	-na	8a\yy	-na	8cc\yy	-na
!LO:LB:g=original	!	!	!	!	!	!	!
4C/	in	4g\yy	in	4b-\yy	in	4ee\yy	in
4C/	ex-	4g\yy	ex-	4b-\yy	ex-	4ee\yy	ex-
=30	=30	=30	=30	=30	=30	=30	=30
4F\	-cel-	4f\yy	-cel-	4a\yy	-cel-	4cc\yy	-cel-
4E\	.	4c\yy	-sis	4g\yy	.	4b-\yy	-sis
!LO:N:vis=8	!	!	!	!	!	!	!
4F\	-sis	4c\yy	in	4f\yy	.	4a\yy	in
8BB-/	in	4d\yy	ex-	4g\yy	.	4b-\yy	ex-
8BB-/	ex-	.	.	.	.	.	.
=31	=31	=31	=31	=31	=31	=31	=31
1C	-cel-	1cyy	-cel-	2f\yy	.	2a\yy	-cel-
.	.	.	.	2e\yy	.	2g\yy	.
=32	=32	=32	=32	=32	=32	=32	=32
2F\	-sis	2c\yy	-sis.	2f\yy	-sis,	2a\yy	-sis
4r	.	4ryy	.	4ryy	.	4ryy	.
4F\	o-	4f\yy	O-	4a\yy	O-	4cc\yy	O-
=33	=33	=33	=33	=33	=33	=33	=33
4.C/	-san-	4.e\yy	-san-	4.g\yy	-san-	4.cc\yy	-san-
8C/	-na	8f\yy	-na	8a\yy	.	8cc\yy	-na
4C/	in	4g\yy	in	4b-\yy	.	4ee\yy	in
4C/	ex-	4g\yy	ex-	4b-\yy	-na	4ee\yy	ex-
=34	=34	=34	=34	=34	=34	=34	=34
4F\	-cel-	4f\yy	-cel-	4a\yy	in	4cc\yy	-cel-
4E\	.	4c\yy	-sis	4g\yy	.	4b-\yy	-sis
4F\	-sis	4c\yy	in	4f\yy	.	4a\yy	in
4BB-/	ex-	4d\yy	ex-	4g\yy	ex-	4b-\yy	ex-
=35	=35	=35	=35	=35	=35	=35	=35
1C	-cel-	1cyy	-cel-	2f\yy	-cel-	2a\yy	-cel-
.	.	.	.	2e\yy	.	2g\yy	.
=36	=36	=36	=36	=36	=36	=36	=36
1FF	-sis.	1cyy	-sis.	1fyy	-sis.	1ayy	-sis.
==	==	==	==	==	==	==	==
*-	*-	*-	*-	*-	*-	*-	*-
!!!system-decoration: [(s1,s2,s3,s4)]
!!!ENC: Filip Voros
!!!END: 2023-11-07
!!!EED: Jan Barakat
!!!EEV: 2023-11-29
